!!!ONB: MCCC : IGH0419_04 : Extracted Monophonic Melody
!!!COM: Handel, George Frideric
!!!OPR: Recorder Sonata in A minor
!!!OMV: 4
!!!SCT: HWV 362 ; Op.1 No.4
!!!ODT: 1712///
**kern
*staff1
=1
*clefG2
*k[]
*a:
*M4/4
8aa
8ee
8aa
16bb
16ccc
8bb
8ee
8bb
16ccc
16ddd
=2
8ccc
8ee
8bb
8ee
8aa
8ee
8dd
8bb
=3
4gg#
8r
8ee
8aa
16ccc
16bb
16aa
16gg
16ff
16ee
=4
8ff
8aa
8ff
8dd
8gg
16bb
16aa
16gg
16ff
16ee
16dd
=5
8ee
8gg
8ee
8cc
8ccc
8ee
8ccc
8cc
=6
4dd
4r
8bb
8dd
8bb
8b
=7
4cc
4r
8aa
8cc
8b
8a
=8
8aa
8cc
8b
8a
8aa
8cc
8b
8a
=9
4.ddd
8ccc
8bb
8aa
8gg#
8ff#
=10
8ee
8gg#
8aa
8dd
8cc
8aa
8b
8gg#
=11
8aa
8bb
4ccc[
8ccc]
16bb
16aa
8gg
8ff
=12
8ee
8ccc
4ggg[
8ggg]
8ccc
8bb
8aa
=13
8bb
8ccc#
4ddd[
8ddd]
16ccc#
16bb
8ccc#
8eee[
=14
8eee]
16ddd#
16ccc#
8eee-
8fff#
8bbb
16aaa
16ggg
8fff#
8eee
=15
8eee-
8b
4bb[
8bb]
4aa
16gg
16ff#
=16
8gg
8b
8ee
16ff#
16gg
8ff#
8b
8ff#
16gg
16aa
=17
8gg
8b
8ff#
8b
8ee
8b
8a
8ff#
=18
4ee-
8r
8b
8ee
16gg
16ff#
16ee
16dd
16cc
16b
=19
8cc
8ee
8cc
8a
8dd
16ff#
16ee
16dd
16cc
16b
16a
=20
8b
8g
4gg
8r
8a
4ff#
=21
8r
8gg
8ggg
8fff#
8eee
8ddd
8ccc
8bb
=22
8aa
8gg
8ccc
8bb
8aa
8gg
8ff#
8ee
=23
4ee-
8r
16aa
32bb
32ccc
8bb
8ee-
8ee
8aa
=24
4gg
8.ff#
16ee
4ee
4r
=25
8aa
8ee
8aa
16bb
16ccc
8bb
8ee
8bb
16ccc
16ddd
=26
8ccc
8ee
8bb
8ee
8aa
8ee
8dd
8bb
=27
4gg#
8r
8ee
8aa
16ccc
16bb
16aa
16gg
16ff
16ee
=28
8ff
8aa
8ff
8dd
8gg
16bb
16aa
16gg
16ff
16ee
16dd
=29
8ee
8gg
8ee
8cc
8ccc
8ee
8ccc
8cc
=30
4dd
4r
8bb
8dd
8bb
8b
=31
4cc
4r
8aa
8cc
8b
8a
=32
8aa
8cc
8b
8a
8aa
8cc
8b
8a
=33
4.ddd
8ccc
8bb
8aa
8gg#
8ff#
=34
8ee
8gg#
8aa
8dd
8cc
8aa
8b
8gg#
=35
8aa
8bb
4ccc[
8ccc]
16bb
16aa
8gg
8ff
=36
8ee
8ccc
4ggg[
8ggg]
8ccc
8bb
8aa
=37
8bb
8ccc#
4ddd[
8ddd]
16ccc#
16bb
8ccc#
8eee[
=38
8eee]
16ddd#
16ccc#
8eee-
8fff#
8bbb
16aaa
16ggg
8fff#
8eee
=39
8eee-
8b
4bb[
8bb]
4aa
16gg
16ff#
=40
8gg
8b
8ee
16ff#
16gg
8ff#
8b
8ff#
16gg
16aa
=41
8gg
8b
8ff#
8b
8ee
8b
8a
8ff#
=42
4ee-
8r
8b
8ee
16gg
16ff#
16ee
16dd
16cc
16b
=43
8cc
8ee
8cc
8a
8dd
16ff#
16ee
16dd
16cc
16b
16a
=44
8b
8g
4gg
8r
8a
4ff#
=45
8r
8gg
8ggg
8fff#
8eee
8ddd
8ccc
8bb
=46
8aa
8gg
8ccc
8bb
8aa
8gg
8ff#
8ee
=47
4ee-
8r
16aa
32bb
32ccc
8bb
8ee-
8ee
8aa
=48
4gg
8.ff#
16ee
4ee
4r
=49
8ccc
8gg
8ccc
16ddd
16eee
8ddd
8gg
8ddd
16eee
16fff
=50
8eee
8gg
8ddd
8gg
8ccc
8gg
8a
8ff#
=51
8gg
8dd
8gg
16aa
16bb-
8aa
8dd
8aa
16bb-
16ccc
=52
8bb-
8dd
8aa
8dd
8gg
8dd
8cc
8aa
=53
4ff#
8r
8dd
8b
16g
16a
16b
16cc
16dd
16b
=54
8cc
8g
8cc
8ee
8cc#
16a
16b
16cc#
16dd
16ee
16cc#
=55
8dd
8a
8dd
8ff
8gg
8ff
8bb-
8aa
=56
8ddd
8ccc
8bb-
8aa
8gg
8ff
8ee-
8dd
=57
4cc#
8r
16gg
32aa
32bb-
8aa
8cc#
8dd
8gg
=58
4ff
8.ee
16dd
8dd
8ee
4ff[
=59
8ff]
8ee
8ee
8dd
8cc
16b
16a
4eee[
=60
8eee]
16ddd
16ccc
8bb
8aa
8gg#
16aa
16bb
8ee
8ee
=61
4.ee
8aa
8aa
8gg#
8gg#
16aa
16bb
=62
8aa
16bb
16ccc
8ddd
8bb
8ccc
8gg#
8aa
8bb
=63
8gg#
8bb
4ee[
8ee]
16ff
16gg
8cc#
8gg
=64
8a
8gg
8ff
8a
8dd
16ee
16ff
8b
8ff
=65
8g
8ff
8ee
8ccc
8aa
8ddd
32bb
32ccc
32bb
32ccc
32bb
32ccc
32aa
32bb
=66
8ccc
8ee
8aa
8cc
8dd
16ff
16ee
16dd
16cc
16b
16a
=67
8b
8dd
8b
8g
8cc
16ee
16dd
16cc
16b
16a
16g
=68
8a
8cc
8ff
8aa
8ddd
8ccc
8fff
8eee
=69
8ddd
8ccc
8bb-
8aa
8ddd
8ccc
8bb-
8aa
=70
4gg#
8r
8bb
8ccc
8gg#
8aa
8ddd
=71
4ccc
8.bb
16aa
4aa
8r
8eee
=72
8ddd
8ccc
8fff
8eee
8ddd
8ccc
8bb-
8aa
=73
4.gg#
16ff#
16ee
8aa
16gg
16ff
8ee
8dd
=74
4cc
8.b
16a
4a
4r
=75
8ccc
8gg
8ccc
16ddd
16eee
8ddd
8gg
8ddd
16eee
16fff
=76
8eee
8gg
8ddd
8gg
8ccc
8gg
8a
8ff#
=77
8gg
8dd
8gg
16aa
16bb-
8aa
8dd
8aa
16bb-
16ccc
=78
8bb-
8dd
8aa
8dd
8gg
8dd
8cc
8aa
=79
4ff#
8r
8dd
8b
16g
16a
16b
16cc
16dd
16b
=80
8cc
8g
8cc
8ee
8cc#
16a
16b
16cc#
16dd
16ee
16cc#
=81
8dd
8a
8dd
8ff
8gg
8ff
8bb-
8aa
=82
8ddd
8ccc
8bb-
8aa
8gg
8ff
8ee-
8dd
=83
4cc#
8r
16gg
32aa
32bb-
8aa
8cc#
8dd
8gg
=84
4ff
8.ee
16dd
8dd
8ee
4ff[
=85
8ff]
8ee
8ee
8dd
8cc
16b
16a
4eee[
=86
8eee]
16ddd
16ccc
8bb
8aa
8gg#
16aa
16bb
8ee
8ee
=87
4.ee
8aa
8aa
8gg#
8gg#
16aa
16bb
=88
8aa
16bb
16ccc
8ddd
8bb
8ccc
8gg#
8aa
8bb
=89
8gg#
8bb
4ee[
8ee]
16ff
16gg
8cc#
8gg
=90
8a
8gg
8ff
8a
8dd
16ee
16ff
8b
8ff
=91
8g
8ff
8ee
8ccc
8aa
8ddd
32bb
32ccc
32bb
32ccc
32bb
32ccc
32aa
32bb
=92
8ccc
8ee
8aa
8cc
8dd
16ff
16ee
16dd
16cc
16b
16a
=93
8b
8dd
8b
8g
8cc
16ee
16dd
16cc
16b
16a
16g
=94
8a
8cc
8ff
8aa
8ddd
8ccc
8fff
8eee
=95
8ddd
8ccc
8bb-
8aa
8ddd
8ccc
8bb-
8aa
=96
4gg#
8r
8bb
8ccc
8gg#
8aa
8ddd
=97
4ccc
8.bb
16aa
4aa
8r
8eee
=98
8ddd
8ccc
8fff
8eee
8ddd
8ccc
8bb-
8aa
=99
4.gg#
16ff#
16ee
8aa
16gg
16ff
8ee
8dd
=100
1cc
=101
4r
4e
4e
4e
=102
8f
8e
8e
8e
16a
16e
16a
16cc
16ee-
16ee
16ee
16ee
=103
16ee
16a
16cc
16ee
16gg#
16aa
16aa
16aa
16aa
16ee
16aa
16ccc
16eee-
16eee
16eee
16eee
=104
12eee
12ccc
12aa
12eee
12bb
12gg#
12ddd
12bb
12gg#
12ccc
12aa
12ee
=105
12bb
12gg#
12dd
12aa
12ff
12dd
12gg#
12ee
12cc
12ee
12aa
12ccc
=106
32bb
32ccc
32bb
32ccc
32bb
32ccc
32bb
32ccc
32bb
32ccc
32bb
32ccc
32bb
32ccc
32bb
32ccc
32bb
32ccc
32bb
32ccc
32bb
32ccc
32bb
32ccc
32bb
32ccc
32bb
32ccc
32bb
16.ccc
=107
32b
32cc
32b
32cc
32b
32cc
32b
32cc
32b
32cc
32b
32cc
32b
32cc
32b
32cc
32b
32cc
32b
32cc
32b
32cc
32b
32cc
32b
32cc
32b
32cc
32b
32cc
32b
32cc
=108
4b
4r
32g#
32b
32dd
32ee
32ff
32gg#
32bb
32ddd
16eee
16fff
24eee
24fff
24eee
=109
32eee
32fff
32eee
32fff
32eee
32fff
32eee
32fff
32eee
32fff
32eee
32fff
32eee
32fff
32eee
32fff
32eee
32fff
32eee
32fff
32eee
32fff
32eee
32fff
8.eee-
16eee
=110
1aaa[
=111
2aaa]
2r
=112
1r
=113
1r
=114
1r
=115
4aaaaa
4r
2r
==
*-
